X:3
T:Banish Misfortune
R:jig
D:Tommy Keane & Jacqueline McCarthy: The Wind among the Reeds
D:Chieftains Live.
Z:First bar also played |^fed cAG|
Z:id:hn-jig-3
M:6/8
K:Dmix
fed cAG | AGd cAG | ~F3 DED | ~F3 GFG |
~A3 cAG | AGA cde | fed cAG | Ad^c d2e :|
|: f2d d^cd | f2a agf | e2c cBc | ece gfe |
f2g agf | e2f gfe | fed cAG | Ad^c d2e :|
|: f2g e2f | ded cdc | ~A3 GAG | ~F3 ded |
c3 cAG | AGA cde | fed cAG | Ad^c d2e :|
P:variations
|: =fed cAG | A2d cAG | F2D DED | FEF ~G3 |
AGA cAG | ~A3 cde | fed cAG | Ad^c d2e :|
|: f2d d^cd | f2g agf | e2c cBc | e2f gfe |
f2g agf | e2f gfe | fed cAG | Ad^c d2e :|
|: f2g e2f | d2e c2d | ABA GAG | F2d ded |
c3 cAG | AGA cde | fed cAG | Ad^c d2e :|
<end>
<start>
